Gruvbox-Plus-Dark/actions/16/bitmap-trace.svg

<svg xmlns="http://www.w3.org/2000/svg" width="16" height="16" viewBox="0 0 16 16">
 <defs>
  <style id="current-color-scheme" type="text/css">
   .ColorScheme-Text { color:#ebdbb2; } .ColorScheme-Highlight { color:#458588; }
  </style>
 </defs>
 <path style="fill:currentColor" class="ColorScheme-Text" d="M 2 2 C 1 2 1 3 1 3 L 1 13 C 1 14 2 14 2 14 L 9 14 L 9 12.582031 L 9.5820312 12 L 3 12 L 3 9.5 L 5.5 6.5625 L 8.8125 10.3125 L 10.9375 8.25 L 12.134766 9.4472656 L 12.292969 9.2890625 L 13.292969 8.2890625 L 14 7.5820312 L 15 8.5820312 L 15 3 C 15 2 14 2 14 2 L 2 2 z M 14 8.9960938 L 13 9.9960938 L 12 10.996094 L 10 12.996094 L 10 14.996094 L 12 14.996094 L 12.59375 14.402344 L 13 13.996094 L 14 12.996094 L 15 11.996094 L 16 10.996094 L 14 8.9960938 z"/>
</svg>

<svg width="16" height="16" version="1.1" viewBox="0 0 16 16" xmlns="http://www.w3.org/2000/svg">
  <defs>
    <style type="text/css">.ColorScheme-Text { color:#ebdbb2; } .ColorScheme-Highlight { color:#458588; }</style>
  </defs>
  <path class="ColorScheme-Text" d="m2 2c-1 0-1 1-1 1v10c0 1 1 1 1 1h7v-1.418l0.582-0.582h-6.582v-2.5l2.5-2.938 3.312 3.75 2.125-2.062 1.197 1.197 1.865-1.865 1 1v-5.582c0-1-1-1-1-1zm12 6.996-4 4v2h2l4-4z" fill="currentColor"/>
</svg>
